packages/elvis-assets-icons/icons/svg/src/lock_hierarchy.svg

<svg width="24" height="24" fill="none" xmlns="http://www.w3.org/2000/svg"><path d="M21 24c-1.654 0-3-1.346-3-3 0-1.37.947-2.564 2.25-2.902V16.5h-7.5v1.598A3.016 3.016 0 0115 21c0 1.654-1.346 3-3 3s-3-1.346-3-3c0-1.37.947-2.564 2.25-2.902V16.5h-7.5v1.598A3.016 3.016 0 016 21c0 1.654-1.346 3-3 3s-3-1.346-3-3c0-1.37.947-2.564 2.25-2.902V15.75A.75.75 0 013 15h8.25v-1.5H9a2.252 2.252 0 01-2.25-2.25V7.5c0-.96.615-1.808 1.5-2.121V3.75A3.754 3.754 0 0112 0a3.754 3.754 0 013.75 3.75v1.629a2.26 2.26 0 011.5 2.121v3.75A2.252 2.252 0 0115 13.5h-2.25V15H21a.75.75 0 01.75.75v2.348A3.016 3.016 0 0124 21c0 1.654-1.346 3-3 3zm0-4.5c-.827 0-1.5.673-1.5 1.5s.673 1.5 1.5 1.5 1.5-.673 1.5-1.5-.673-1.5-1.5-1.5zm-9 0c-.827 0-1.5.673-1.5 1.5s.673 1.5 1.5 1.5 1.5-.673 1.5-1.5-.673-1.5-1.5-1.5zm-9 0c-.827 0-1.5.673-1.5 1.5s.673 1.5 1.5 1.5 1.5-.673 1.5-1.5-.673-1.5-1.5-1.5zM9 6.75a.75.75 0 00-.75.75v3.75c0 .414.336.75.75.75h6a.75.75 0 00.75-.75V7.5a.75.75 0 00-.75-.75H9zm5.25-1.5v-1.5A2.252 2.252 0 0012 1.5a2.252 2.252 0 00-2.25 2.25v1.5h4.5z" fill="#000"/><rect x="11.3" y="8" width="1.5" height="2.5" rx=".75" fill="#000"/></svg>

<svg width="24" height="24" viewBox="0 0 24 24" fill="none" xmlns="http://www.w3.org/2000/svg">
<path d="M21 24C19.346 24 18 22.654 18 21C18 19.63 18.947 18.436 20.25 18.098V16.5H12.75V18.098C14.053 18.436 15 19.63 15 21C15 22.654 13.654 24 12 24C10.346 24 9 22.654 9 21C9 19.63 9.947 18.436 11.25 18.098V16.5H3.75V18.098C5.053 18.436 6 19.63 6 21C6 22.654 4.654 24 3 24C1.346 24 0 22.654 0 21C0 19.63 0.947 18.436 2.25 18.098V15.75C2.25 15.336 2.586 15 3 15H11.25V13.5H9C7.759 13.5 6.75 12.491 6.75 11.25V7.5C6.75 6.54 7.365 5.692 8.25 5.379V3.75C8.25 1.682 9.932 0 12 0C14.068 0 15.75 1.682 15.75 3.75V5.379C16.635 5.693 17.25 6.541 17.25 7.5V11.25C17.25 12.491 16.241 13.5 15 13.5H12.75V15H21C21.414 15 21.75 15.336 21.75 15.75V18.098C23.053 18.436 24 19.63 24 21C24 22.654 22.654 24 21 24ZM21 19.5C20.173 19.5 19.5 20.173 19.5 21C19.5 21.827 20.173 22.5 21 22.5C21.827 22.5 22.5 21.827 22.5 21C22.5 20.173 21.827 19.5 21 19.5ZM12 19.5C11.173 19.5 10.5 20.173 10.5 21C10.5 21.827 11.173 22.5 12 22.5C12.827 22.5 13.5 21.827 13.5 21C13.5 20.173 12.827 19.5 12 19.5ZM3 19.5C2.173 19.5 1.5 20.173 1.5 21C1.5 21.827 2.173 22.5 3 22.5C3.827 22.5 4.5 21.827 4.5 21C4.5 20.173 3.827 19.5 3 19.5ZM9 6.75C8.586 6.75 8.25 7.086 8.25 7.5V11.25C8.25 11.664 8.586 12 9 12H15C15.414 12 15.75 11.664 15.75 11.25V7.5C15.75 7.086 15.414 6.75 15 6.75H9ZM14.25 5.25V3.75C14.25 2.509 13.241 1.5 12 1.5C10.759 1.5 9.75 2.509 9.75 3.75V5.25H14.25Z" fill="black"/>
<rect x="11.5" y="8" width="1" height="2.5" rx="0.5" fill="black"/>
</svg>
